modules/feather/icons/database.svg

<?xml version="1.0" encoding="UTF-8"?>
<svg width="24px" height="24px" viewBox="0 0 24 24" version="1.1" xmlns="http://www.w3.org/2000/svg" xmlns:xlink="http://www.w3.org/1999/xlink">
    <g id="database" fill-rule="evenodd">
        <path d="M4,7.52769756 L4,12.0000001 C4,12.8127884 7.5561637,14 12,14 C16.4438363,14 20,12.8127884 20,12 L20,7.52769756 C18.1751048,8.47599017 15.2701244,9 12,9 C8.7298756,9 5.82489521,8.47599017 4,7.52769756 Z M2,5 C2,2.49324457 6.4797337,1 12,1 C17.5202663,1 22,2.49324457 22,5 L22,19 C22,21.511827 17.5423388,23 12,23 C6.45766119,23 2,21.511827 2,19 L2,5 Z M20,14.5332627 C18.1788421,15.4790145 15.2792852,16 12,16 C8.72071483,16 5.82115791,15.4790145 4,14.5332627 L4,19 C4,19.8127884 7.5561637,21 12,21 C16.4438363,21 20,19.8127884 20,19 L20,14.5332627 Z M12,7 C16.4208592,7 20,5.80695307 20,5 C20,4.19304693 16.4208592,3 12,3 C7.5791408,3 4,4.19304693 4,5 C4,5.80695307 7.5791408,7 12,7 Z" id="Combined-Shape" fill="#000000" fill-rule="nonzero"></path>
    </g>
</svg>

<svg width="24" height="24" viewBox="0 0 24 24" xmlns="http://www.w3.org/2000/svg"><path d="M4 7.528V12c0 .813 3.556 2 8 2s8-1.187 8-2V7.528C18.175 8.476 15.27 9 12 9c-3.27 0-6.175-.524-8-1.472zM2 5c0-2.507 4.48-4 10-4s10 1.493 10 4v14c0 2.512-4.458 4-10 4S2 21.512 2 19V5zm18 9.533C18.179 15.48 15.28 16 12 16c-3.28 0-6.179-.521-8-1.467V19c0 .813 3.556 2 8 2s8-1.187 8-2v-4.467zM12 7c4.42 0 8-1.193 8-2 0-.807-3.58-2-8-2S4 4.193 4 5c0 .807 3.58 2 8 2z" fill-rule="nonzero"/></svg>
